X: 1
T: South Side Waltz
C: Charlene E Thomson - Sep 12, 2003
R: waltz
Z: 2012 John Chambers <jc:trillian.mit.edu>
S: printed MS of unknown origin
M: 3/4
L: 1/8
K: Dm
|:"Dm"Ad AG FA | "E"^G6 \
| "A7"Ge ^cA _AG | "Dm"F6 \
| "Gm"EF GA Bd | "Dm"d2 A4 \
|1 "E7"^G3 Gd=B | "A"^c6 \
:|2 "A"A=B ^cd ef | "Dm"d6 ||
|:"Dm"de dc AF | "Gm"A2 G4 \
| "C"cd ed cG | "C7"B2 "F"A4 \
| "Gm"GB d4 | "Dm"FA d4 \
|1 "E"ef e2 e2 | "A7"eg f2 e2 \
:|2 "A7"ee ag fe | "Dm"d6 |]

